X:41
T:The Old Boar
C:Otis Tomas
S:Bernie Waugh
R:Reel
M:4/4
L:1/8
K:Bb
|:AB|\
"F"cF~FF CFAF|"Eb(maj7)"GE~EE B,EGB|\
"F"AF~FF CFA,F|"Eb"G,B,EG "Bb"BedB|
"F"cF~FF CFA,F|"Ebmaj7"GE~EE B,EG,E|\
"F"A,CFA "Gm"BAGF|"Bb"EedB "C"c2:|
|:fg|\
"F"af~ff cfAf|"Eb"eB~BB GBEb|\
"F(Dm)"af~ff cfAF|"Eb(Cm)"EGBe "Bb(Cm)"bagb|
"F"af~ff cfAf|"Eb"eB~BB GBEB,|\
"F"A,CFA "Gm"BAGF|"Bb"EedB "C"c2:|



